build/svg/cmd/sc_presentationcurrentslide.svg

<?xml version="1.0" encoding="UTF-8" standalone="no"?>
<svg
   xmlns:dc="http://purl.org/dc/elements/1.1/"
   xmlns:cc="http://creativecommons.org/ns#"
   xmlns:rdf="http://www.w3.org/1999/02/22-rdf-syntax-ns#"
   xmlns:svg="http://www.w3.org/2000/svg"
   xmlns="http://www.w3.org/2000/svg"
   xmlns:sodipodi="http://sodipodi.sourceforge.net/DTD/sodipodi-0.dtd"
   xmlns:inkscape="http://www.inkscape.org/namespaces/inkscape"
   viewBox="0 0 16 16"
   version="1.1"
   id="svg4"
   sodipodi:docname="sc_presentationcurrentslide.svg"
   inkscape:export-filename="/home/jupiter007/Libreoffice yaru theme fullcolor/build/cmd/sc_presentationcurrentslide.png"
   inkscape:export-xdpi="96"
   inkscape:export-ydpi="96"
   inkscape:version="0.92.5 (2060ec1f9f, 2020-04-08)"><metadata
   id="metadata10">
  <rdf:RDF>
    <cc:Work
       rdf:about="">
      <dc:format>image/svg+xml</dc:format>
      <dc:type
         rdf:resource="http://purl.org/dc/dcmitype/StillImage" />
    </cc:Work>
  </rdf:RDF>
</metadata>
<defs
   id="defs8" />
<sodipodi:namedview
   pagecolor="#ffffff"
   bordercolor="#666666"
   borderopacity="1"
   objecttolerance="10"
   gridtolerance="10"
   guidetolerance="10"
   inkscape:pageopacity="0"
   inkscape:pageshadow="2"
   inkscape:window-width="1920"
   inkscape:window-height="1011"
   id="namedview6"
   showgrid="true"
   inkscape:zoom="29.5"
   inkscape:cx="7.3672781"
   inkscape:cy="6.1342529"
   inkscape:window-x="1920"
   inkscape:window-y="32"
   inkscape:window-maximized="1"
   inkscape:current-layer="svg4">
  <inkscape:grid
     type="xygrid"
     id="grid841" />
</sodipodi:namedview>
/&gt;<path
   sodipodi:nodetypes="csssscc"
   inkscape:connector-curvature="0"
   id="path826"
   d="m 1.9999998,4.0000621 v 6.9999999 c 0,1.108 0.892,2 2,2 H 12 c 1.108,0 2.013544,-0.892083 2,-2 V 4.0000621 Z"
   style="opacity:0.6;fill:#000000;fill-opacity:1;fill-rule:evenodd;stroke:#000000;stroke-width:2;stroke-linecap:butt;stroke-linejoin:round;stroke-miterlimit:4;stroke-dasharray:none;stroke-opacity:1" />
<rect
   style="opacity:1;fill:#6d6d6d;fill-opacity:1;fill-rule:evenodd;stroke:none;stroke-width:2;stroke-linecap:butt;stroke-linejoin:round;stroke-miterlimit:4;stroke-dasharray:none;stroke-opacity:1"
   id="rect819"
   width="16"
   height="2"
   x="0"
   y="2.000062" />
<path
   style="opacity:1;fill:#ffffff;fill-opacity:1;fill-rule:evenodd;stroke:none;stroke-width:2;stroke-linecap:butt;stroke-linejoin:round;stroke-miterlimit:4;stroke-dasharray:none;stroke-opacity:1"
   d="m 1.9999998,4.0000621 v 6.9999999 c 0,1.108 0.892,2 2,2 H 12 c 1.108,0 2.013544,-0.892083 2,-2 V 4.0000621 Z"
   id="rect821"
   inkscape:connector-curvature="0"
   sodipodi:nodetypes="csssscc" />
<path
   style="opacity:1;fill:#46a926;fill-opacity:1;fill-rule:evenodd;stroke:none;stroke-width:2;stroke-linecap:butt;stroke-linejoin:round;stroke-miterlimit:4;stroke-dasharray:none;stroke-opacity:1"
   id="path828"
   sodipodi:type="arc"
   sodipodi:cx="10.5"
   sodipodi:cy="8.500062"
   sodipodi:rx="2.5"
   sodipodi:ry="2.5"
   sodipodi:start="0"
   sodipodi:end="4.712389"
   d="M 13,8.500062 A 2.5,2.5 0 0 1 11.456709,10.809761 2.5,2.5 0 0 1 8.732233,10.267829 2.5,2.5 0 0 1 8.1903012,7.5433534 2.5,2.5 0 0 1 10.5,6.000062 l 0,2.5 z" />
<rect
   style="opacity:1;fill:#1a7fd4;fill-opacity:1;fill-rule:evenodd;stroke:none;stroke-width:2.30940104;stroke-linecap:butt;stroke-linejoin:round;stroke-miterlimit:4;stroke-dasharray:none;stroke-opacity:1"
   id="rect830"
   width="4"
   height="1"
   x="3"
   y="6.0000625" />
<rect
   style="opacity:1;fill:#c7162b;fill-opacity:1;fill-rule:evenodd;stroke:none;stroke-width:2.30940104;stroke-linecap:butt;stroke-linejoin:round;stroke-miterlimit:4;stroke-dasharray:none;stroke-opacity:1"
   id="rect832"
   width="4"
   height="1"
   x="3"
   y="8.000062" />
<rect
   style="opacity:1;fill:#46a926;fill-opacity:1;fill-rule:evenodd;stroke:none;stroke-width:2.30940104;stroke-linecap:butt;stroke-linejoin:round;stroke-miterlimit:4;stroke-dasharray:none;stroke-opacity:1"
   id="rect834"
   width="4"
   height="1"
   x="3"
   y="10.000062" />
<path
   style="opacity:1;fill:#c7162b;fill-opacity:1;fill-rule:evenodd;stroke:none;stroke-width:2;stroke-linecap:butt;stroke-linejoin:round;stroke-miterlimit:4;stroke-dasharray:none;stroke-opacity:1"
   id="path836"
   sodipodi:type="arc"
   sodipodi:cx="8.500062"
   sodipodi:cy="-10.5"
   sodipodi:rx="2.5"
   sodipodi:ry="2.5"
   sodipodi:start="3.1415927"
   sodipodi:end="4.712389"
   d="m 6.000062,-10.5 a 2.5,2.5 0 0 1 2.5,-2.5 l 0,2.5 z"
   transform="rotate(90)" />
<path
   style="opacity:0.6;fill:#aee3f8;fill-opacity:1;fill-rule:evenodd;stroke:#000000;stroke-width:2;stroke-linecap:butt;stroke-linejoin:round;stroke-miterlimit:4;stroke-dasharray:none;stroke-opacity:1"
   d="M 10 10 L 10 15 L 12 15 L 12 10 L 10 10 z M 13 10 L 13 15 L 15 15 L 15 10 L 13 10 z "
   id="rect843" />
<rect
   y="10"
   x="13"
   height="5"
   width="2"
   id="rect845"
   style="opacity:1;fill:#aee3f8;fill-opacity:1;fill-rule:evenodd;stroke:none;stroke-width:2;stroke-linecap:butt;stroke-linejoin:round;stroke-miterlimit:4;stroke-dasharray:none;stroke-opacity:1" />
<rect
   style="opacity:1;fill:#aee3f8;fill-opacity:1;fill-rule:evenodd;stroke:none;stroke-width:2;stroke-linecap:butt;stroke-linejoin:round;stroke-miterlimit:4;stroke-dasharray:none;stroke-opacity:1"
   id="rect852"
   width="2"
   height="5"
   x="10"
   y="10" />
</svg>

<svg xmlns="http://www.w3.org/2000/svg" viewBox="0 0 16 16">/&gt;<path d="M2 4v7c0 1.108.892 2 2 2h8c1.108 0 2.014-.892 2-2V4z" opacity=".6" fill-rule="evenodd" stroke="#000" stroke-width="2" stroke-linejoin="round"/><path fill="#6d6d6d" fill-rule="evenodd" d="M0 2h16v2H0z"/><path d="M2 4v7c0 1.108.892 2 2 2h8c1.108 0 2.014-.892 2-2V4z" fill="#fff" fill-rule="evenodd"/><path d="M13 8.5a2.5 2.5 0 01-1.543 2.31 2.5 2.5 0 01-2.725-.542 2.5 2.5 0 01-.542-2.725A2.5 2.5 0 0110.5 6v2.5z" fill="#46a926" fill-rule="evenodd"/><path fill="#1a7fd4" fill-rule="evenodd" d="M3 6h4v1H3z"/><path fill="#c7162b" fill-rule="evenodd" d="M3 8h4v1H3z"/><path fill="#46a926" fill-rule="evenodd" d="M3 10h4v1H3z"/><path d="M10.5 6A2.5 2.5 0 0113 8.5h-2.5z" fill="#c7162b" fill-rule="evenodd"/><path d="M10 10v5h2v-5h-2zm3 0v5h2v-5h-2z" opacity=".6" fill="#aee3f8" fill-rule="evenodd" stroke="#000" stroke-width="2" stroke-linejoin="round"/><path fill="#aee3f8" fill-rule="evenodd" d="M13 10h2v5h-2zM10 10h2v5h-2z"/></svg>
